X: 19
T: Frost Is All Over, The
Z: Sláine
S: https://thesession.org/tunes/448#setting48212
R: jig
M: 6/8
L: 1/8
K: Gmaj
|:GAB AGE|AEE AEE|GAB AGD|EGG G2A|
G2B ABd|eAA ABc|BcB AGE|G3 G3:|
|:BAB dBd|eaa eaa|BdB AGD|EGG G2A|
BAB gfg|eAA ABc|BcB AGE|GAG G3:|

